X:6613
T:Guillenl
R:Chanson
O:France
B:Le livre des Chansons (Henri Davenson) n103
Z:<anamnese@caramail.com> -- http://anamnese.fr.st
M:2/4
L:1/8
Q:1/4=110
K:E
z B B | [M:3/4] G2 E2 F F | [M:2/4] E B B B |
        [M:3/4] G2 E2 F F | [M:2/4] E z/2 B/ B B | 
G3/2 B/ B B | G3/2 B/ B B | [M:3/4] G2 E2 F F | [M:2/4] E2 z2 ||
W:Guillenl, beau Guillenl,
W:En bonne anne puissiez entrer !
W:Qui n'y a pas qui a Nol
W:Qu'y a huit jours que Dieu fut n !
W:/.../
